images/expect/1.svg

<svg width="30" height="37" viewBox="0 0 30 37" fill="none" xmlns="http://www.w3.org/2000/svg">
<path d="M28.5928 12.8091L28.5933 12.8093C28.7724 12.8797 28.926 13.0028 29.0342 13.1623C29.1423 13.3217 29.2001 13.5102 29.2 13.703C29.2 13.703 29.2 13.703 29.2 13.7031V30.0696V30.0698H29C29.0001 30.2228 28.9544 30.3722 28.8688 30.4985C28.7831 30.6249 28.6616 30.7222 28.5201 30.7778L28.5928 12.8091ZM28.5928 12.8091L21.7637 10.1453C22.0914 9.11977 22.1852 8.03212 22.0368 6.96358C21.8796 5.83121 21.4551 4.75319 20.7988 3.81992C20.1425 2.88664 19.2735 2.12528 18.2645 1.59979C17.2555 1.07429 16.1361 0.8 15 0.8C13.8639 0.8 12.7445 1.07429 11.7355 1.59979C10.7265 2.12528 9.85752 2.88664 9.20121 3.81992C8.5449 4.75319 8.1204 5.83121 7.96319 6.96358C7.81484 8.03212 7.90856 9.11977 8.23629 10.1453L1.4072 12.8091L1.40675 12.8093C1.22762 12.8797 1.074 13.0028 0.965824 13.1623C0.857679 13.3217 0.799943 13.5102 0.8 13.703C0.8 13.703 0.8 13.703 0.8 13.7031L0.8 30.0697L28.5928 12.8091ZM19.7725 23.4425L19.7724 23.6425C19.9027 23.6425 20.0316 23.6157 20.1511 23.5637C20.2707 23.5118 20.3783 23.4358 20.4673 23.3405C20.4674 23.3405 20.4674 23.3405 20.4674 23.3405L22.3706 21.3059L23.2909 21.908L23.2913 21.9082C23.4352 22.0019 23.6017 22.0549 23.7732 22.0615C23.9447 22.0681 24.1147 22.0281 24.2653 21.9457C24.416 21.8633 24.5416 21.7417 24.6292 21.5938C24.7168 21.4459 24.7631 21.2771 24.7635 21.1051V21.1047V16.0911L27.2923 15.1045V29.413L15.9538 33.8397V19.5312L18.8186 18.412L19.4946 23.3887L19.4199 23.5742C19.42 23.5742 19.4202 23.5743 19.4203 23.5744C19.5323 23.6195 19.652 23.6426 19.7727 23.6425L19.7725 23.4425ZM19.7725 23.4425C19.8753 23.4425 19.977 23.4214 20.0714 23.3803C20.1658 23.3393 20.2508 23.2792 20.3213 23.2039M19.7725 23.4425L20.3213 23.2039M20.3213 23.2039L22.3394 21.0465L20.3213 23.2039ZM21.5283 19.4067L20.7263 20.2638V17.668L22.858 16.8359V19.3355L22.7443 19.2608L22.7442 19.2607C22.5567 19.1378 22.3322 19.085 22.1098 19.1118C21.8874 19.1385 21.6817 19.243 21.5284 19.4067L21.5283 19.4067ZM14.7819 10.3409L14.7819 10.3409L18.4355 7.03389C18.5323 6.95144 18.6117 6.85044 18.6691 6.73685C18.7271 6.62221 18.7615 6.49705 18.7704 6.36884C18.7793 6.24062 18.7625 6.11189 18.7209 5.9903C18.6793 5.86871 18.6139 5.7567 18.5283 5.66098C18.4428 5.56525 18.3389 5.48775 18.2228 5.43319C18.1067 5.37862 17.9808 5.34811 17.8527 5.34354C17.7246 5.33897 17.5969 5.36041 17.4772 5.40658C17.3587 5.4523 17.2505 5.52131 17.159 5.60949L14.1246 8.35651L12.8161 7.24266C12.8161 7.24265 12.8161 7.24265 12.8161 7.24264C12.6229 7.07819 12.3725 6.99754 12.1199 7.01883C11.8674 7.04012 11.6339 7.16156 11.4707 7.35592C11.3076 7.55023 11.228 7.80156 11.249 8.05464C11.2701 8.30772 11.3901 8.54237 11.5832 8.70679L11.5833 8.70689L13.5272 10.3595C13.7031 10.5095 13.9272 10.5903 14.158 10.5869C14.3889 10.5835 14.6105 10.496 14.7819 10.3409ZM20.9392 11.8799L25.6115 13.703L23.7159 14.4428L20.027 13.0133C20.3683 12.6677 20.674 12.288 20.9392 11.8799ZM19.6815 16.0186L16.8036 14.8864C17.2832 14.7602 17.7487 14.5833 18.1924 14.3584L21.075 15.4749L19.6815 16.0186ZM15.0001 2.73756C16.0277 2.73758 17.0324 3.04446 17.8871 3.61956C18.7418 4.19469 19.4081 5.0123 19.8017 5.96915C20.1953 6.92602 20.2983 7.979 20.0976 8.9949C19.897 10.0108 19.4017 10.9437 18.6747 11.6759C17.9477 12.408 17.0217 12.9064 16.0137 13.1083C15.0058 13.3102 13.961 13.2066 13.0114 12.8105C12.0619 12.4144 11.25 11.7435 10.6788 10.8825C10.1075 10.0215 9.80251 9.00918 9.80246 7.97343C9.804 6.58481 10.3525 5.2538 11.327 4.27232C12.3016 3.29092 13.6226 2.73913 15.0001 2.73756ZM4.38821 13.7029L6.48383 12.8845L17.0517 17.0447L15 17.8455L4.38821 13.7029ZM14.0462 33.8397L2.70769 29.413V15.1046L14.0462 19.5312V33.8397Z" fill="url(#paint0_linear)" stroke="url(#paint1_linear)" stroke-width="0.4"/>
<defs>
<linearGradient id="paint0_linear" x1="4.5" y1="1" x2="15" y2="36" gradientUnits="userSpaceOnUse">
<stop offset="0.103646" stop-color="#F09642"/>
<stop offset="1" stop-color="#F0DF42"/>
</linearGradient>
<linearGradient id="paint1_linear" x1="5.66667" y1="1" x2="26.8549" y2="25.7196" gradientUnits="userSpaceOnUse">
<stop stop-color="#F09642"/>
<stop offset="1" stop-color="#F0DF42"/>
</linearGradient>
</defs>
</svg>

<svg width="30" height="37" fill="none" xmlns="http://www.w3.org/2000/svg"><path d="M28.593 12.81a.955.955 0 0 1 .607.893V30.07H29a.763.763 0 0 1-.48.708l.073-17.969Zm0 0-6.83-2.665A7.2 7.2 0 0 0 20.8 3.82a7.12 7.12 0 0 0-2.534-2.22 7.066 7.066 0 0 0-6.53 0 7.12 7.12 0 0 0-2.534 2.22 7.2 7.2 0 0 0-.965 6.325L1.407 12.81a.955.955 0 0 0-.607.894V30.07l27.793-17.26Zm-8.82 10.632v.2a.949.949 0 0 0 .694-.302l1.904-2.034.92.602a.95.95 0 0 0 1.338-.314.963.963 0 0 0 .134-.489V16.09l2.53-.987v14.309l-11.34 4.427V19.53l2.866-1.119.676 4.977-.075.185a.942.942 0 0 0 .353.068v-.2Zm0 0a.749.749 0 0 0 .548-.238m-.549.238.55-.238m0 0 2.017-2.157-2.018 2.157Zm1.206-3.797-.802.857v-2.596l2.132-.832v2.5l-.114-.075a.95.95 0 0 0-1.216.146Zm-6.746-9.066 3.654-3.307a.957.957 0 0 0 .285-1.044.96.96 0 0 0-.868-.646.95.95 0 0 0-.694.265l-3.034 2.748-1.309-1.114a.95.95 0 0 0-1.345.113.963.963 0 0 0 .112 1.35l1.944 1.654a.95.95 0 0 0 1.255-.02Zm6.157 1.539 4.672 1.823-1.895.74-3.689-1.43c.341-.345.647-.725.912-1.133Zm-1.258 4.139-2.877-1.133c.48-.126.945-.303 1.388-.528l2.883 1.117-1.393.544Zm-4.68-13.281c1.027 0 2.031.306 2.886.882a5.228 5.228 0 0 1 1.915 2.35 5.27 5.27 0 0 1-1.127 5.706 5.186 5.186 0 0 1-2.661 1.432 5.163 5.163 0 0 1-3.003-.298 5.206 5.206 0 0 1-2.332-1.928 5.263 5.263 0 0 1 .648-6.61A5.185 5.185 0 0 1 15 2.738ZM4.387 13.703l2.096-.819 10.568 4.16-2.052.802-10.612-4.143Zm9.658 20.137L2.708 29.413V15.105l11.338 4.426V33.84Z" fill="url(#a)" stroke="url(#b)" stroke-width=".4"/><defs><linearGradient id="a" x1="4.5" y1="1" x2="15" y2="36" gradientUnits="userSpaceOnUse"><stop offset=".104" stop-color="#F09642"/><stop offset="1" stop-color="#F0DF42"/></linearGradient><linearGradient id="b" x1="5.667" y1="1" x2="26.855" y2="25.72" gradientUnits="userSpaceOnUse"><stop stop-color="#F09642"/><stop offset="1" stop-color="#F0DF42"/></linearGradient></defs></svg>
